X: 122
T:Jota de Antaruxas
M:3/4
L:1/8
Q:200
C:Trad
R:Jota
K:C
cBAG | E2{F}ED C2- | C2 cBAG | F2{G}FE D2- |D2 FEDC| D2 B,DG2 |A2 G2-G2|
E2{F}EDC2- | C2 :| |: G"F."cG2 | AG EGEG | AG EGEG | c2BAB2- |B2 DFDF |
GF |DFDF |
 GF DFDF |A2GF G2- G"F."c :| |:EDEF | GFED C2- | C2 EDEF |G2A2 G2- |G"F.
"c GABc |
d2c2B2 | A2G2E2 | GFED C2- | C2 :||

